.local/share/icons/Gruvbox-Plus-Dark/mimetypes/scalable/application-audio.svg

<svg width="256" height="256" viewBox="0 0 256 256" fill="none" xmlns="http://www.w3.org/2000/svg">
<g opacity="0.4" filter="url(#filter0_f)">
<path d="M55.0839 15.5636H155.608L216.009 75.7129L216.011 224.609C216.011 233.52 208.749 240.737 199.838 240.737H55.0838C46.1734 240.737 39 233.564 39 224.654V31.6474C39 22.737 46.1734 15.5636 55.0838 15.5636H55.0839Z" fill="#282828"/>
</g>
<path d="M55.0839 15H155.608L216.009 75.1493L216.011 224.045C216.011 232.956 208.749 240.174 199.838 240.174H55.0838C46.1734 240.174 39 233 39 224.09V31.0838C39 22.1734 46.1734 15 55.0838 15H55.0839Z" fill="#ebdbb2"/>
<path fill-rule="evenodd" clip-rule="evenodd" d="M155.608 20.3191H55.0839C49.1112 20.3191 44.3191 25.1111 44.3191 31.0838V224.09C44.3191 230.063 49.1111 234.855 55.0838 234.855H199.838C205.83 234.855 210.692 229.999 210.692 224.046V75.1493L155.608 20.3191ZM155.608 15H55.0839C46.1735 15 39 22.1734 39 31.0838V224.09C39 233 46.1734 240.174 55.0838 240.174H199.838C208.749 240.174 216.011 232.956 216.011 224.045L216.009 75.1493L155.608 15Z" fill="url(#paint0_linear)"/>
<path d="M171.271 68.0007C169.749 67.9857 167.724 68.2225 165.032 68.6264L120.226 75.4781C109.408 77.7817 109.445 78.4974 109.409 87.6377V161.793C108.958 161.477 108.512 161.16 108.046 160.847V160.85C104.609 158.547 100.946 156.907 96.0256 156.907C89.8628 156.907 86.1878 159.268 83.9635 162.376C81.7382 165.483 81 169.401 81 172.43C81 176.081 82.2471 179.979 84.9525 182.949C87.6567 185.921 91.816 188 97.7956 188C104.548 188 109.297 186.114 111.981 182.432C114.096 179.534 115.265 175.66 115.682 170.882V170.87C115.741 170.29 115.783 169.695 115.82 169.081C115.877 168.138 115.864 166.37 115.864 166.37V109.591C115.864 101.48 115.864 100.996 126.685 99.1459L158.547 94.1477C169.388 92.7302 169.39 93.7159 169.39 99.808V151.916C168.951 151.608 168.518 151.299 168.064 150.994V150.998C164.628 148.695 160.966 147.056 156.046 147.056C149.883 147.056 146.206 149.416 143.981 152.524C141.756 155.631 141.019 159.549 141.019 162.578C141.019 166.231 142.267 170.128 144.972 173.098C147.677 176.069 151.836 178.149 157.816 178.149C164.568 178.149 169.317 176.264 172.001 172.58C174.116 169.682 175.283 165.81 175.701 161.032V161.016C175.759 160.437 175.802 159.842 175.838 159.229C175.895 158.285 175.884 156.516 175.884 156.516V77.5235C175.884 70.4092 175.837 68.0521 171.271 68.0018V68.0007Z" fill="url(#paint1_linear)"/>
<path opacity="0.25" d="M155.608 17V61.2306C155.608 70.141 162.867 77.1605 171.777 77.1605L216.009 77.1493V75.1493L155.608 17Z" fill="#282828"/>
<path d="M155.608 15V59.2306C155.608 68.141 162.867 75.1605 171.777 75.1605L216.009 75.1493L155.608 15Z" fill="url(#paint2_linear)"/>
<defs>
<filter id="filter0_f" x="23.8778" y="0.441412" width="207.255" height="255.418" filterUnits="userSpaceOnUse" color-interpolation-filters="sRGB">
<feFlood flood-opacity="0" result="BackgroundImageFix"/>
<feBlend mode="normal" in="SourceGraphic" in2="BackgroundImageFix" result="shape"/>
<feGaussianBlur stdDeviation="7.5611" result="effect1_foregroundBlur"/>
</filter>
<linearGradient id="paint0_linear" x1="39" y1="15" x2="39" y2="240.174" gradientUnits="userSpaceOnUse">
<stop offset="1e-07" stop-color="#fb4934"/>
<stop offset="1" stop-color="#cc241d"/>
</linearGradient>
<linearGradient id="paint1_linear" x1="81" y1="68" x2="81" y2="188" gradientUnits="userSpaceOnUse">
<stop offset="1e-07" stop-color="#cc241d"/>
<stop offset="1" stop-color="#fb4934"/>
</linearGradient>
<linearGradient id="paint2_linear" x1="155.608" y1="15" x2="155.608" y2="75.1605" gradientUnits="userSpaceOnUse">
<stop offset="1e-07" stop-color="#fb4934"/>
<stop offset="1" stop-color="#cc241d"/>
</linearGradient>
</defs>
</svg>

<svg width="256" height="256" fill="none" version="1.1" viewBox="0 0 256 256" xmlns="http://www.w3.org/2000/svg">
  <path d="m55.08 15h100.5l60.4 60.15 2e-3 148.9c0 8.911-7.262 16.13-16.17 16.13h-144.8c-8.91 0-16.08-7.174-16.08-16.08v-193c0-8.91 7.173-16.08 16.08-16.08h1e-4z" fill="#ebdbb2"/>
  <path d="m155.6 20.32h-100.5c-5.973 0-10.76 4.792-10.76 10.76v193c0 5.973 4.792 10.76 10.76 10.76h144.8c5.992 0 10.85-4.856 10.85-10.81v-148.9l-55.08-54.83zm0-5.319h-100.5c-8.91 0-16.08 7.173-16.08 16.08v193c0 8.91 7.173 16.08 16.08 16.08h144.8c8.911 0 16.17-7.218 16.17-16.13l-2e-3 -148.9-60.4-60.15z" clip-rule="evenodd" fill="url(#paint0_linear)" fill-rule="evenodd"/>
  <path d="m171.3 68c-1.522-0.015-3.547 0.2218-6.239 0.6257l-44.81 6.852c-10.82 2.304-10.78 3.019-10.82 12.16v74.16c-0.451-0.316-0.897-0.633-1.363-0.946v3e-3c-3.437-2.303-7.1-3.943-12.02-3.943-6.163 0-9.838 2.361-12.06 5.469-2.225 3.107-2.964 7.025-2.964 10.05 0 3.651 1.247 7.549 3.952 10.52 2.704 2.972 6.864 5.051 12.84 5.051 6.752 0 11.5-1.886 14.19-5.568 2.115-2.898 3.284-6.772 3.701-11.55v-0.012c0.059-0.58 0.101-1.175 0.138-1.789 0.057-0.943 0.044-2.711 0.044-2.711v-56.78c0-8.111 0-8.595 10.82-10.45l31.86-4.998c10.84-1.418 10.84-0.4318 10.84 5.66v52.11c-0.439-0.308-0.872-0.617-1.326-0.922v4e-3c-3.436-2.303-7.098-3.942-12.02-3.942-6.163 0-9.84 2.36-12.06 5.468-2.225 3.107-2.962 7.025-2.962 10.05 0 3.653 1.248 7.55 3.953 10.52 2.705 2.971 6.864 5.051 12.84 5.051 6.752 0 11.5-1.885 14.18-5.569 2.115-2.898 3.282-6.77 3.7-11.55v-0.016c0.058-0.579 0.101-1.174 0.137-1.787 0.057-0.944 0.046-2.713 0.046-2.713v-78.99c0-7.114-0.047-9.471-4.613-9.522v-0.0011z" fill="url(#paint1_linear)"/>
  <path d="m155.6 17v44.23c0 8.91 7.259 15.93 16.17 15.93l44.23-0.0112v-2l-60.4-58.15z" fill="#282828" opacity=".25"/>
  <path d="m155.6 15v44.23c0 8.91 7.259 15.93 16.17 15.93l44.23-0.0112-60.4-60.15z" fill="url(#paint2_linear)"/>
  <defs>
    <linearGradient id="paint0_linear" x1="39" x2="39" y1="15" y2="240.2" gradientUnits="userSpaceOnUse">
      <stop stop-color="#fb4934" offset="1e-7"/>
      <stop stop-color="#cc241d" offset="1"/>
    </linearGradient>
    <linearGradient id="paint1_linear" x1="81" x2="81" y1="68" y2="188" gradientUnits="userSpaceOnUse">
      <stop stop-color="#cc241d" offset="1e-7"/>
      <stop stop-color="#fb4934" offset="1"/>
    </linearGradient>
    <linearGradient id="paint2_linear" x1="155.6" x2="155.6" y1="15" y2="75.16" gradientUnits="userSpaceOnUse">
      <stop stop-color="#fb4934" offset="1e-7"/>
      <stop stop-color="#cc241d" offset="1"/>
    </linearGradient>
  </defs>
</svg>
